X: 3318
T: Bellangare Races, The
R: jig
M: 6/8
K: Gmajor
~B3 GBd|ece gfe|ded dcB|dcB Adc|
~B3 GBd|ece gfe|dge dcB|1 AGF G2 A:|2 AGF GBc||
def ~g3|dge dBG|~c3 BdB|BAG ABA|
GFG AGA|Bcd efg|dge dcB|1 AGF GBc:|2 AGF G2 A||

